X:1
T:Kost ar c'hoat : Leuelan, Perred (TBI 1408)
Z:Roger Ngaret (Novembre 99)
C:Trad.
S:Tonio Breizh-Izel (Polig Monjarret)
A:Bretagne
M:4/4
Q:70
K:Bb
FF B,C DE CD | B,2 DE FE D2 | F2 B,2 CD ED | CD/E/ D/C/D B,2 B,2 |:
F2 FD GF E2 | (3CDE CC FE D2 | D2 DB, E/D/E CC | A,>C CD B,2 B,2 :|
FD/E/ CD B,E/D/ C2 | F2 DE CD B,2 | F/E/F B,2 ED C>C | F2 EF GA B2 |:
F/E/F D2 F/G/F ED | CD E2 C2 FE | D2 B,D/D/ DE C2 | A,C/C/ CD B,2 B,2 :|
